wall-sconce-flat-variant-outline.svg

<svg fill="currentColor" viewBox="0 0 24 24"><path d="M5 13v6h14v-6zm12 4H7v-2h10zm1.73-6.32 1.77-1.77-1.41-1.41-1.77 1.77zm-13.46 0 1.41-1.41L4.91 7.5 3.5 8.91zM13 8V5h-2v3z"/></svg>

<svg  viewBox="0 0 24 24" fill="currentColor"><path  d="M5 13V19H19V13H5M17 17H7V15H17V17M18.73 10.68L20.5 8.91L19.09 7.5L17.32 9.27L18.73 10.68M5.27 10.68L6.68 9.27L4.91 7.5L3.5 8.91L5.27 10.68M13 8V5H11V8H13Z"/></svg>
